static/img/kroki/d7e1aa98b67fbce9c09e19994549c4cb.svg

<?xml version="1.0" encoding="us-ascii" standalone="no"?><svg xmlns="http://www.w3.org/2000/svg" xmlns:xlink="http://www.w3.org/1999/xlink" contentStyleType="text/css" height="1033px" preserveAspectRatio="none" style="width:474px;height:1033px;" version="1.1" viewBox="0 0 474 1033" width="474px" zoomAndPan="magnify"><defs/><g><!--class azure_cosmos_db_restorable_mongo_db_database--><g id="elem_azure_cosmos_db_restorable_mongo_db_database"><rect codeLine="23" fill="#3D176E" height="74.0859" id="azure_cosmos_db_restorable_mongo_db_database" rx="2.5" ry="2.5" style="stroke:#000D19;stroke-width:0.5;" width="460" x="7" y="660.14"/><ellipse cx="22" cy="680.0345" fill="#ADD1B2" rx="11" ry="11" style="stroke:#181818;stroke-width:1.0;"/><path d="M24.9688,685.6752 Q24.3906,685.972 23.75,686.1127 Q23.1094,686.2689 22.4063,686.2689 Q19.9063,686.2689 18.5781,684.6283 Q17.2656,682.972 17.2656,679.847 Q17.2656,676.722 18.5781,675.0658 Q19.9063,673.4095 22.4063,673.4095 Q23.1094,673.4095 23.75,673.5658 Q24.4063,673.722 24.9688,674.0189 L24.9688,676.7377 Q24.3438,676.1595 23.75,675.8939 Q23.1563,675.6127 22.5313,675.6127 Q21.1875,675.6127 20.5,676.6908 Q19.8125,677.7533 19.8125,679.847 Q19.8125,681.9408 20.5,683.0189 Q21.1875,684.0814 22.5313,684.0814 Q23.1563,684.0814 23.75,683.8158 Q24.3438,683.5345 24.9688,682.9564 L24.9688,685.6752 Z " fill="#000000"/><text fill="#D9B8FF" font-family="Helvetica" font-size="17" lengthAdjust="spacing" textLength="418" x="41" y="685.9198">azure_cosmos_db_restorable_mongo_db_database</text><line style="stroke:#000D19;stroke-width:0.5;" x1="8" x2="466" y1="699.9291" y2="699.9291"/><text fill="#D9B8FF" font-family="sans-serif" font-size="14" font-weight="bold" lengthAdjust="spacing" textLength="242" x="18" y="721.9242">restorable_mongodb_database</text><text fill="#D9B8FF" font-family="sans-serif" font-size="14" lengthAdjust="spacing" textLength="196" x="260" y="721.9242">: azure_restorable_database</text></g><!--class azure_restorable_database--><g id="elem_azure_restorable_database"><rect codeLine="26" fill="#3D176E" height="231.8672" id="azure_restorable_database" rx="2.5" ry="2.5" style="stroke:#000D19;stroke-width:0.5;" width="265" x="104.5" y="794.22"/><ellipse cx="119.5" cy="814.1145" fill="#ADD1B2" rx="11" ry="11" style="stroke:#181818;stroke-width:1.0;"/><path d="M122.4688,819.7552 Q121.8906,820.052 121.25,820.1927 Q120.6094,820.3489 119.9063,820.3489 Q117.4063,820.3489 116.0781,818.7083 Q114.7656,817.052 114.7656,813.927 Q114.7656,810.802 116.0781,809.1458 Q117.4063,807.4895 119.9063,807.4895 Q120.6094,807.4895 121.25,807.6458 Q121.9063,807.802 122.4688,808.0989 L122.4688,810.8177 Q121.8438,810.2395 121.25,809.9739 Q120.6563,809.6927 120.0313,809.6927 Q118.6875,809.6927 118,810.7708 Q117.3125,811.8333 117.3125,813.927 Q117.3125,816.0208 118,817.0989 Q118.6875,818.1614 120.0313,818.1614 Q120.6563,818.1614 121.25,817.8958 Q121.8438,817.6145 122.4688,817.0364 L122.4688,819.7552 Z " fill="#000000"/><text fill="#D9B8FF" font-family="Helvetica" font-size="17" lengthAdjust="spacing" textLength="223" x="138.5" y="819.9998">azure_restorable_database</text><line style="stroke:#000D19;stroke-width:0.5;" x1="105.5" x2="368.5" y1="834.0091" y2="834.0091"/><text fill="#D9B8FF" font-family="sans-serif" font-size="14" font-weight="bold" lengthAdjust="spacing" textLength="105" x="115.5" y="856.0042">can_undelete</text><text fill="#D9B8FF" font-family="sans-serif" font-size="14" lengthAdjust="spacing" textLength="48" x="220.5" y="856.0042">: string</text><text fill="#D9B8FF" font-family="sans-serif" font-size="14" font-weight="bold" lengthAdjust="spacing" textLength="167" x="115.5" y="882.3011">can_undelete_reason</text><text fill="#D9B8FF" font-family="sans-serif" font-size="14" lengthAdjust="spacing" textLength="48" x="282.5" y="882.3011">: string</text><text fill="#D9B8FF" font-family="sans-serif" font-size="14" font-weight="bold" lengthAdjust="spacing" textLength="134" x="115.5" y="908.5979">event_timestamp</text><text fill="#D9B8FF" font-family="sans-serif" font-size="14" lengthAdjust="spacing" textLength="48" x="249.5" y="908.5979">: string</text><text fill="#D9B8FF" font-family="sans-serif" font-size="14" font-weight="bold" lengthAdjust="spacing" textLength="118" x="115.5" y="934.8948">operation_type</text><text fill="#D9B8FF" font-family="sans-serif" font-size="14" lengthAdjust="spacing" textLength="48" x="233.5" y="934.8948">: string</text><text fill="#D9B8FF" font-family="sans-serif" font-size="14" font-weight="bold" lengthAdjust="spacing" textLength="72" x="115.5" y="961.1917">owner_id</text><text fill="#D9B8FF" font-family="sans-serif" font-size="14" lengthAdjust="spacing" textLength="48" x="187.5" y="961.1917">: string</text><text fill="#D9B8FF" font-family="sans-serif" font-size="14" font-weight="bold" lengthAdjust="spacing" textLength="151" x="115.5" y="987.4886">owner_resource_id</text><text fill="#D9B8FF" font-family="sans-serif" font-size="14" lengthAdjust="spacing" textLength="48" x="266.5" y="987.4886">: string</text><text fill="#D9B8FF" font-family="sans-serif" font-size="14" font-weight="bold" lengthAdjust="spacing" textLength="21" x="115.5" y="1013.7854">rid</text><text fill="#D9B8FF" font-family="sans-serif" font-size="14" lengthAdjust="spacing" textLength="48" x="136.5" y="1013.7854">: string</text></g><!--class microsoft_resource--><g id="elem_microsoft_resource"><rect codeLine="35" fill="#3D176E" height="100.3828" id="microsoft_resource" rx="2.5" ry="2.5" style="stroke:#000D19;stroke-width:0.5;" width="214" x="130" y="438.75"/><ellipse cx="151.3" cy="458.6445" fill="#ADD1B2" rx="11" ry="11" style="stroke:#181818;stroke-width:1.0;"/><path d="M154.2688,464.2852 Q153.6906,464.582 153.05,464.7227 Q152.4094,464.8789 151.7063,464.8789 Q149.2063,464.8789 147.8781,463.2383 Q146.5656,461.582 146.5656,458.457 Q146.5656,455.332 147.8781,453.6758 Q149.2063,452.0195 151.7063,452.0195 Q152.4094,452.0195 153.05,452.1758 Q153.7063,452.332 154.2688,452.6289 L154.2688,455.3477 Q153.6438,454.7695 153.05,454.5039 Q152.4563,454.2227 151.8313,454.2227 Q150.4875,454.2227 149.8,455.3008 Q149.1125,456.3633 149.1125,458.457 Q149.1125,460.5508 149.8,461.6289 Q150.4875,462.6914 151.8313,462.6914 Q152.4563,462.6914 153.05,462.4258 Q153.6438,462.1445 154.2688,461.5664 L154.2688,464.2852 Z " fill="#000000"/><text fill="#D9B8FF" font-family="Helvetica" font-size="17" lengthAdjust="spacing" textLength="158" x="171.7" y="464.5298">microsoft_resource</text><line style="stroke:#000D19;stroke-width:0.5;" x1="131" x2="343" y1="478.5391" y2="478.5391"/><text fill="#D9B8FF" font-family="sans-serif" font-size="14" font-weight="bold" lengthAdjust="spacing" textLength="35" x="141" y="500.5342">etag</text><text fill="#D9B8FF" font-family="sans-serif" font-size="14" lengthAdjust="spacing" textLength="48" x="176" y="500.5342">: string</text><text fill="#D9B8FF" font-family="sans-serif" font-size="14" font-weight="bold" lengthAdjust="spacing" textLength="144" x="141" y="526.8311">provisioning_state</text><text fill="#D9B8FF" font-family="sans-serif" font-size="14" lengthAdjust="spacing" textLength="48" x="285" y="526.8311">: string</text></g><!--class resource--><g id="elem_resource"><rect codeLine="39" fill="#3D176E" height="310.7578" id="resource" rx="2.5" ry="2.5" style="stroke:#000D19;stroke-width:0.5;" width="227" x="123.5" y="7"/><ellipse cx="192.25" cy="26.8945" fill="#ADD1B2" rx="11" ry="11" style="stroke:#181818;stroke-width:1.0;"/><path d="M195.2188,32.5352 Q194.6406,32.832 194,32.9727 Q193.3594,33.1289 192.6563,33.1289 Q190.1563,33.1289 188.8281,31.4883 Q187.5156,29.832 187.5156,26.707 Q187.5156,23.582 188.8281,21.9258 Q190.1563,20.2695 192.6563,20.2695 Q193.3594,20.2695 194,20.4258 Q194.6563,20.582 195.2188,20.8789 L195.2188,23.5977 Q194.5938,23.0195 194,22.7539 Q193.4063,22.4727 192.7813,22.4727 Q191.4375,22.4727 190.75,23.5508 Q190.0625,24.6133 190.0625,26.707 Q190.0625,28.8008 190.75,29.8789 Q191.4375,30.9414 192.7813,30.9414 Q193.4063,30.9414 194,30.6758 Q194.5938,30.3945 195.2188,29.8164 L195.2188,32.5352 Z " fill="#000000"/><text fill="#D9B8FF" font-family="Helvetica" font-size="17" lengthAdjust="spacing" textLength="71" x="217.75" y="32.7798">resource</text><line style="stroke:#000D19;stroke-width:0.5;" x1="124.5" x2="349.5" y1="46.7891" y2="46.7891"/><text fill="#D9B8FF" font-family="sans-serif" font-size="14" font-weight="bold" lengthAdjust="spacing" textLength="29" x="134.5" y="68.7842">age</text><text fill="#D9B8FF" font-family="sans-serif" font-size="14" lengthAdjust="spacing" textLength="66" x="163.5" y="68.7842">: duration</text><text fill="#D9B8FF" font-family="sans-serif" font-size="14" font-weight="bold" lengthAdjust="spacing" textLength="43" x="134.5" y="95.0811">atime</text><text fill="#D9B8FF" font-family="sans-serif" font-size="14" lengthAdjust="spacing" textLength="70" x="177.5" y="95.0811">: datetime</text><text fill="#D9B8FF" font-family="sans-serif" font-size="14" font-weight="bold" lengthAdjust="spacing" textLength="43" x="134.5" y="121.3779">ctime</text><text fill="#D9B8FF" font-family="sans-serif" font-size="14" lengthAdjust="spacing" textLength="70" x="177.5" y="121.3779">: datetime</text><text fill="#D9B8FF" font-family="sans-serif" font-size="14" font-weight="bold" lengthAdjust="spacing" textLength="14" x="134.5" y="147.6748">id</text><text fill="#D9B8FF" font-family="sans-serif" font-size="14" lengthAdjust="spacing" textLength="48" x="148.5" y="147.6748">: string</text><text fill="#D9B8FF" font-family="sans-serif" font-size="14" font-weight="bold" lengthAdjust="spacing" textLength="33" x="134.5" y="173.9717">kind</text><text fill="#D9B8FF" font-family="sans-serif" font-size="14" lengthAdjust="spacing" textLength="48" x="167.5" y="173.9717">: string</text><text fill="#D9B8FF" font-family="sans-serif" font-size="14" font-weight="bold" lengthAdjust="spacing" textLength="90" x="134.5" y="200.2686">last_access</text><text fill="#D9B8FF" font-family="sans-serif" font-size="14" lengthAdjust="spacing" textLength="66" x="224.5" y="200.2686">: duration</text><text fill="#D9B8FF" font-family="sans-serif" font-size="14" font-weight="bold" lengthAdjust="spacing" textLength="90" x="134.5" y="226.5654">last_update</text><text fill="#D9B8FF" font-family="sans-serif" font-size="14" lengthAdjust="spacing" textLength="66" x="224.5" y="226.5654">: duration</text><text fill="#D9B8FF" font-family="sans-serif" font-size="14" font-weight="bold" lengthAdjust="spacing" textLength="48" x="134.5" y="252.8623">mtime</text><text fill="#D9B8FF" font-family="sans-serif" font-size="14" lengthAdjust="spacing" textLength="70" x="182.5" y="252.8623">: datetime</text><text fill="#D9B8FF" font-family="sans-serif" font-size="14" font-weight="bold" lengthAdjust="spacing" textLength="43" x="134.5" y="279.1592">name</text><text fill="#D9B8FF" font-family="sans-serif" font-size="14" lengthAdjust="spacing" textLength="48" x="177.5" y="279.1592">: string</text><text fill="#D9B8FF" font-family="sans-serif" font-size="14" font-weight="bold" lengthAdjust="spacing" textLength="34" x="134.5" y="305.4561">tags</text><text fill="#D9B8FF" font-family="sans-serif" font-size="14" lengthAdjust="spacing" textLength="171" x="168.5" y="305.4561">: dictionary[string, string]</text></g><!--link azure_cosmos_db_restorable_mongo_db_database to azure_restorable_database--><g id="link_azure_cosmos_db_restorable_mongo_db_database_azure_restorable_database"><path codeLine="51" d="M237,734.45 C237,751.3 237,766.36 237,787.97 " fill="none" id="azure_cosmos_db_restorable_mongo_db_database-to-azure_restorable_database" style="stroke:#FFAF37;stroke-width:2.0;"/><polygon fill="#FFAF37" points="237,793.97,241,784.97,237,788.97,233,784.97,237,793.97" style="stroke:#FFAF37;stroke-width:2.0;"/></g><!--reverse link microsoft_resource to azure_cosmos_db_restorable_mongo_db_database--><g id="link_microsoft_resource_azure_cosmos_db_restorable_mongo_db_database"><path codeLine="52" d="M237,557.61 C237,594.67 237,626.48 237,659.87 " fill="none" id="microsoft_resource-backto-azure_cosmos_db_restorable_mongo_db_database" style="stroke:#FFAF37;stroke-width:2.0;"/><polygon fill="none" points="237,539.61,231,557.61,243,557.61,237,539.61" style="stroke:#FFAF37;stroke-width:2.0;"/></g><!--reverse link resource to microsoft_resource--><g id="link_resource_microsoft_resource"><path codeLine="53" d="M237,336.06 C237,379.65 237,405.98 237,438.42 " fill="none" id="resource-backto-microsoft_resource" style="stroke:#FFAF37;stroke-width:2.0;"/><polygon fill="none" points="237,318.06,231,336.06,243,336.06,237,318.06" style="stroke:#FFAF37;stroke-width:2.0;"/></g><!--SRC=[bLJ1Qjj04BthAmIvcHhiXjPnAON44DfBA4rlfOZHxaXUhDqHioiRf-s_ToNPGRjI77AJvhrvyzveq5P9J57NxfXgr3coJUnEcHeOT7hBJ8SDLSJfLL50SRsAmNioxbN20sXClsArHwS4n8oVMoLs1grDtm-WEn2xaganifTt3CPw28qRi3OLM7lh7AkySJWm8zVvJL74p5ZqwbekLnznH2EMo2VAOh6GotLCUNNKnTpFZ4VrXEbokBG7SZYoEHhHiIwwR1a3awEWP_n5Zzz1IcNAzCEWzgFtn0Ovg3zkGTAXPHTGsU4Owv2HtB76pIWLhczaiPeaVtk9d8XsTIayDOoP8Al9PZBF6AqZXhp2J9CfgQr9S923nVHFCfl5X04-ctqwwGr8Pp3v5qoSO7Jo0apclMA5hjEp_Y9D6G6-6ooP0CUzF-ZCAUs5GTS1HZKoE4KcQrSIGWV_2J8b9uhU8ZKiC4OvU3_7qaemMIhSSr-N1nsKGNVDj5VMU_6lcRSQn3oB1H9GTXJPz1dQIXkpg_dszhdTpqGjCkxF8opuMIu38Vml8vhG8KqjJ_O6Y9wOOq27M_MXUqKbsZRWuwyUUtVY_FPHttHwy_cN2xSriVpFV-Vp-PlEEubwnwB9Vm00]--></g></svg>

<svg xmlns="http://www.w3.org/2000/svg" width="474" height="1033" viewBox="0 0 474 1033"><rect width="460" height="74.086" x="7" y="660.14" fill="#3D176E" rx="2.5" ry="2.5" style="stroke:#000d19;stroke-width:.5"/><circle cx="22" cy="680.034" r="11" fill="#ADD1B2" style="stroke:#181818;stroke-width:1"/><path d="M24.969 685.675q-.578.297-1.219.438-.64.156-1.344.156-2.5 0-3.828-1.64-1.312-1.657-1.312-4.782t1.312-4.781q1.328-1.657 3.828-1.657.703 0 1.344.157.656.156 1.219.453v2.719q-.625-.579-1.219-.844-.594-.281-1.219-.281-1.343 0-2.031 1.078-.687 1.062-.687 3.156t.687 3.172q.688 1.062 2.031 1.062.625 0 1.219-.265.594-.282 1.219-.86z"/><text x="41" y="685.92" fill="#D9B8FF" font-family="Helvetica" font-size="17" textLength="418">azure_cosmos_db_restorable_mongo_db_database</text><path d="M8 699.929h458" style="stroke:#000d19;stroke-width:.5"/><text x="18" y="721.924" fill="#D9B8FF" font-family="sans-serif" font-size="14" font-weight="bold" textLength="242">restorable_mongodb_database</text><text x="260" y="721.924" fill="#D9B8FF" font-family="sans-serif" font-size="14" textLength="196">: azure_restorable_database</text><rect width="265" height="231.867" x="104.5" y="794.22" fill="#3D176E" rx="2.5" ry="2.5" style="stroke:#000d19;stroke-width:.5"/><circle cx="119.5" cy="814.115" r="11" fill="#ADD1B2" style="stroke:#181818;stroke-width:1"/><path d="M122.469 819.755q-.578.297-1.219.438-.64.156-1.344.156-2.5 0-3.828-1.64-1.312-1.657-1.312-4.782t1.312-4.781q1.328-1.656 3.828-1.656.703 0 1.344.156.656.156 1.219.453v2.719q-.625-.578-1.219-.844-.594-.281-1.219-.281-1.344 0-2.031 1.078-.687 1.062-.687 3.156t.687 3.172q.688 1.062 2.031 1.062.625 0 1.219-.265.594-.281 1.219-.86z"/><text x="138.5" y="820" fill="#D9B8FF" font-family="Helvetica" font-size="17" textLength="223">azure_restorable_database</text><path d="M105.5 834.009h263" style="stroke:#000d19;stroke-width:.5"/><text x="115.5" y="856.004" fill="#D9B8FF" font-family="sans-serif" font-size="14" font-weight="bold" textLength="105">can_undelete</text><text x="220.5" y="856.004" fill="#D9B8FF" font-family="sans-serif" font-size="14" textLength="48">: string</text><text x="115.5" y="882.301" fill="#D9B8FF" font-family="sans-serif" font-size="14" font-weight="bold" textLength="167">can_undelete_reason</text><text x="282.5" y="882.301" fill="#D9B8FF" font-family="sans-serif" font-size="14" textLength="48">: string</text><text x="115.5" y="908.598" fill="#D9B8FF" font-family="sans-serif" font-size="14" font-weight="bold" textLength="134">event_timestamp</text><text x="249.5" y="908.598" fill="#D9B8FF" font-family="sans-serif" font-size="14" textLength="48">: string</text><text x="115.5" y="934.895" fill="#D9B8FF" font-family="sans-serif" font-size="14" font-weight="bold" textLength="118">operation_type</text><text x="233.5" y="934.895" fill="#D9B8FF" font-family="sans-serif" font-size="14" textLength="48">: string</text><text x="115.5" y="961.192" fill="#D9B8FF" font-family="sans-serif" font-size="14" font-weight="bold" textLength="72">owner_id</text><text x="187.5" y="961.192" fill="#D9B8FF" font-family="sans-serif" font-size="14" textLength="48">: string</text><text x="115.5" y="987.489" fill="#D9B8FF" font-family="sans-serif" font-size="14" font-weight="bold" textLength="151">owner_resource_id</text><text x="266.5" y="987.489" fill="#D9B8FF" font-family="sans-serif" font-size="14" textLength="48">: string</text><text x="115.5" y="1013.785" fill="#D9B8FF" font-family="sans-serif" font-size="14" font-weight="bold" textLength="21">rid</text><text x="136.5" y="1013.785" fill="#D9B8FF" font-family="sans-serif" font-size="14" textLength="48">: string</text><rect width="214" height="100.383" x="130" y="438.75" fill="#3D176E" rx="2.5" ry="2.5" style="stroke:#000d19;stroke-width:.5"/><circle cx="151.3" cy="458.644" r="11" fill="#ADD1B2" style="stroke:#181818;stroke-width:1"/><path d="M154.269 464.285q-.578.297-1.219.438-.64.156-1.344.156-2.5 0-3.828-1.64-1.312-1.657-1.312-4.782t1.312-4.781q1.328-1.656 3.828-1.656.703 0 1.344.156.656.156 1.219.453v2.719q-.625-.579-1.219-.844-.594-.281-1.219-.281-1.343 0-2.031 1.078-.687 1.062-.687 3.156t.687 3.172q.688 1.062 2.031 1.062.625 0 1.219-.265.594-.281 1.219-.86z"/><text x="171.7" y="464.53" fill="#D9B8FF" font-family="Helvetica" font-size="17" textLength="158">microsoft_resource</text><path d="M131 478.539h212" style="stroke:#000d19;stroke-width:.5"/><text x="141" y="500.534" fill="#D9B8FF" font-family="sans-serif" font-size="14" font-weight="bold" textLength="35">etag</text><text x="176" y="500.534" fill="#D9B8FF" font-family="sans-serif" font-size="14" textLength="48">: string</text><text x="141" y="526.831" fill="#D9B8FF" font-family="sans-serif" font-size="14" font-weight="bold" textLength="144">provisioning_state</text><text x="285" y="526.831" fill="#D9B8FF" font-family="sans-serif" font-size="14" textLength="48">: string</text><rect width="227" height="310.758" x="123.5" y="7" fill="#3D176E" rx="2.5" ry="2.5" style="stroke:#000d19;stroke-width:.5"/><circle cx="192.25" cy="26.895" r="11" fill="#ADD1B2" style="stroke:#181818;stroke-width:1"/><path d="M195.219 32.535q-.578.297-1.219.438-.64.156-1.344.156-2.5 0-3.828-1.64-1.312-1.657-1.312-4.782t1.312-4.781q1.328-1.656 3.828-1.656.703 0 1.344.156.656.156 1.219.453v2.719q-.625-.578-1.219-.844-.594-.281-1.219-.281-1.344 0-2.031 1.078-.687 1.062-.687 3.156t.687 3.172q.688 1.062 2.031 1.062.625 0 1.219-.265.594-.281 1.219-.86z"/><text x="217.75" y="32.78" fill="#D9B8FF" font-family="Helvetica" font-size="17" textLength="71">resource</text><path d="M124.5 46.789h225" style="stroke:#000d19;stroke-width:.5"/><text x="134.5" y="68.784" fill="#D9B8FF" font-family="sans-serif" font-size="14" font-weight="bold" textLength="29">age</text><text x="163.5" y="68.784" fill="#D9B8FF" font-family="sans-serif" font-size="14" textLength="66">: duration</text><text x="134.5" y="95.081" fill="#D9B8FF" font-family="sans-serif" font-size="14" font-weight="bold" textLength="43">atime</text><text x="177.5" y="95.081" fill="#D9B8FF" font-family="sans-serif" font-size="14" textLength="70">: datetime</text><text x="134.5" y="121.378" fill="#D9B8FF" font-family="sans-serif" font-size="14" font-weight="bold" textLength="43">ctime</text><text x="177.5" y="121.378" fill="#D9B8FF" font-family="sans-serif" font-size="14" textLength="70">: datetime</text><text x="134.5" y="147.675" fill="#D9B8FF" font-family="sans-serif" font-size="14" font-weight="bold" textLength="14">id</text><text x="148.5" y="147.675" fill="#D9B8FF" font-family="sans-serif" font-size="14" textLength="48">: string</text><text x="134.5" y="173.972" fill="#D9B8FF" font-family="sans-serif" font-size="14" font-weight="bold" textLength="33">kind</text><text x="167.5" y="173.972" fill="#D9B8FF" font-family="sans-serif" font-size="14" textLength="48">: string</text><text x="134.5" y="200.269" fill="#D9B8FF" font-family="sans-serif" font-size="14" font-weight="bold" textLength="90">last_access</text><text x="224.5" y="200.269" fill="#D9B8FF" font-family="sans-serif" font-size="14" textLength="66">: duration</text><text x="134.5" y="226.565" fill="#D9B8FF" font-family="sans-serif" font-size="14" font-weight="bold" textLength="90">last_update</text><text x="224.5" y="226.565" fill="#D9B8FF" font-family="sans-serif" font-size="14" textLength="66">: duration</text><text x="134.5" y="252.862" fill="#D9B8FF" font-family="sans-serif" font-size="14" font-weight="bold" textLength="48">mtime</text><text x="182.5" y="252.862" fill="#D9B8FF" font-family="sans-serif" font-size="14" textLength="70">: datetime</text><text x="134.5" y="279.159" fill="#D9B8FF" font-family="sans-serif" font-size="14" font-weight="bold" textLength="43">name</text><text x="177.5" y="279.159" fill="#D9B8FF" font-family="sans-serif" font-size="14" textLength="48">: string</text><text x="134.5" y="305.456" fill="#D9B8FF" font-family="sans-serif" font-size="14" font-weight="bold" textLength="34">tags</text><text x="168.5" y="305.456" fill="#D9B8FF" font-family="sans-serif" font-size="14" textLength="171">: dictionary[string, string]</text><path fill="none" d="M237 734.45v53.52" style="stroke:#ffaf37;stroke-width:2"/><path fill="#FFAF37" d="m237 793.97 4-9-4 4-4-4z" style="stroke:#ffaf37;stroke-width:2"/><path fill="none" d="M237 557.61v102.26m0-120.26-6 18h12zm0-203.55v102.36m0-120.36-6 18h12z" style="stroke:#ffaf37;stroke-width:2"/></svg>
